packages/bezier-icons/icons/chat-bubble-filled.svg

<svg width="24" height="24" viewBox="0 0 24 24" fill="none" xmlns="http://www.w3.org/2000/svg">
<path fill-rule="evenodd" clip-rule="evenodd" d="M20.7233 18.19C20.5573 17.694 20.5763 17.144 20.8223 16.683C21.8613 14.734 22.2813 12.409 21.7873 9.954C20.9823 5.954 17.6933 2.789 13.6643 2.137C6.83729 1.033 1.02329 6.848 2.12929 13.675C2.78229 17.703 5.94629 20.991 9.94729 21.796C12.4033 22.29 14.7293 21.868 16.6783 20.829C17.1373 20.584 17.6813 20.565 18.1743 20.729C18.7113 20.908 19.4293 21.147 20.0973 21.37C20.8793 21.63 21.6223 20.886 21.3613 20.105L20.7233 18.19Z" fill="#313234"/>
</svg>

<svg xmlns="http://www.w3.org/2000/svg" width="24" height="24" fill="none" viewBox="0 0 24 24"><path fill="#313234" fill-rule="evenodd" d="M20.723 18.19c-.166-.496-.147-1.046.1-1.507 1.038-1.949 1.458-4.274.964-6.729-.805-4-4.094-7.165-8.123-7.817A10.013 10.013 0 0 0 2.13 13.675c.653 4.028 3.817 7.316 7.818 8.121 2.456.494 4.782.072 6.731-.967.46-.245 1.003-.264 1.496-.1l1.923.641a1 1 0 0 0 1.264-1.265z" clip-rule="evenodd"/></svg>
